X: 1
T:Schottisches efter Johannes Schwarz
M:6/8
L:1/8
K:Am
E|:"Am" ABE AGE| cBc "G"dcd | "C"ege"G" ded | "Am"cAB AGE |"Dm" D2A "Am" AGE| cBc "G"d3 |"C"ege"G" ded |1 "Am"cAG A2E:|2"Am"cAG A2a|: "Am"aba "G"ged |" "Ccde geg|"F" aba "G"ged| "Am"ecA "G"GEG| "F"Adc AGE|"C" cBc "G"d3| "C"ege"G" ded1| "Am"cAG A2a:|2"Am"cag a3||

